X:1
T: Crooked Trail to Holbrook (Arizon-i-o)
M:2/4
L:1/8
K:C
 E| G3/2 G/2 G3/2 F/2| E2 C3/2 C/2| D3.99999962500005/5.99999925000009 D3.99999962500005/5.99999925000009 D3.99999962500005/5.99999925000009 EE|\
 C3 G,| C3/2 D/2 E3/2 F/2| G3/2 E/2 D3/2 C/2| D3/2 D/2 D3/2 E/2| D3|\
 G,| C3/2 D/2 E3/2 F/2| G3/2 E/2 D3/2 C/2| F3/2 C/2 F3/2 G/2| A2 F3/2 F/2|\
 G3/2 G/2 G3/2 A/2| G2 C3/2 D/2| E3/2 E/2 D3/2 D/2| C3||
